X:1
T:Child Jesus Comes from Heav’nly Height
T:Niels Wilhelm Gade (1817-1890)
T:Child Jesus Comes from Heav’nly Height
T:Public Domain
T:Public Domain
C:Niels Wilhelm Gade (1817-1890)
Z:Public Domain
%%score ( 1 2 ) ( 3 4 )
L:1/8
M:4/4
K:Eb
V:1 treble 
V:2 treble 
V:3 bass 
V:4 bass 
V:1
 B2 | c2 B2 G2 A2 | B6 [EB]2 | [Ec]2 [DB]2 [EG]2 [EA]2 | [EG]3 [EF] [DF]2 [EG]2 | %5
w: ~|~ ~ ~ ~|~ 1.~Child|Je- sus comes from|heav’n- ly height To|
w: ~|~ ~ ~ ~|~ 2.~Take|cour- age, soul in|grief cast down, For-|
 [DB]2 [Gc]2 [EA]2 [EG]2 | [DF]4 E2 [EB]2 | [Ec]2 [EB]2 [EG]2 [EA]2 | [EG]3 [EF] [DF]2 [FB]2 | %9
w: save us from sin’s|keep- ing; On|ger straw, in dark-|some night, The Bless-|
w: get the bit- ter|deal- ing; A|is born in Da-|vid’s town To touch|
 [Fd]2 [Ec]2 [DB]3 [^F=A] | [^F=A]4 G2 B2 | [Ge]3 [Ge] [EB]2 [Ec]2 | [EA]2 (BA) [EG]2 [DB]2 | %13
w: èd One lies sleep-|ing. The star|the an- gels greet,|The ox- * en kiss|
w: all souls with heal-|ing. Then let|and seek the child,|Child- ren * like Him,|
 [EG]2 [DB]2 [CE]2 [EA]2 | [DG]3 [DF] [CE]2 [Dc]>[Dc] | ([EB]3 [DA]) [EG]2 [Ge]>[Ge] | %16
w: ba- by’s feet; Al-|le- lu- ia, al- le-|lu- * ia, Child Je-|
w: un- de- filed. Al-|le- lu- ia, al- le-|lu- * ia, Child Je-|
 ([Gd]3 [^Fc]) [GB]2 [=Ec]2 | [FA]2 [EG]2 [DF]3 E | E6 |] %19
w: sus, * Christ the|Lord. * * *||
w: sus, * Christ the|Lord. * * *||
V:2
 x2 | x8 | x8 | x8 | x8 | x8 | x4 E2 x2 | x8 | x8 | x8 | x4 G2 B2 | x8 | x2 D2 x4 | x8 | x8 | x8 | %16
w: ||||||man-||||smiles down,||the||||
w: ||||||child||||us go||meek,||||
 x8 | x7 E | E6 |] %19
w: |||
w: |||
V:3
 B,2 | C2 B,2 G,2 A,2 | B,6 [E,G,]2 | A,2 B,2 C2 [F,C]2 | B,3 [=A,C] B,2 B,2 | %5
 B,2 [B,E]2 [B,C]2 B,2 | [B,,A,]4 [E,G,]2 [E,G,]2 | C,2 (E,[G,B,]) C2 [F,C]2 | %8
 B,3 [=A,C] B,2 [B,D]2 | [B,,B,]2 [C,=A,]2 [D,G,]3 [D,C] | [G,C]4 [G,B,]2 B,2 | %11
 [E,B,]3 [E,B,] [G,B,]2 A,2 | [F,C]2 [B,,B,]2 [E,B,]2 [G,B,]2 | C2 [G,B,]2 [A,C]2 [F,C]2 | %14
 [G,=B,]3 [G,B,] [C,C]2 [F,A,]>[F,A,] | (G,3 F,) [E,B,]2 C>C | (B,3 =A,) [G,D]2 [C,C]2 | %17
 [F,C]2 [F,B,]2 [B,,A,]3 [E,G,] | [E,G,]6 |] %19
V:4
 x2 | x8 | x8 | A,2 B,2 C2 x2 | B,3 B,2 B,2 x | B,2 x2 B,2 x2 | x8 | G,3 C2 x3 | B,3 B,2 x3 | x8 | %10
 x6 B,2 | x6 A,2 | x8 | C2 x6 | x8 | B,4 C>C x2 | D4 x4 | x8 | x6 |] %19

